X: 15
T: Kilnamona
R: barndance
M: 4/4
L: 1/8
K: Dmaj
|: "D" ADFA DEFA | A2G2 "A" E3F  | "Em" G2E2 B3B      | "A" B2A2 "D" F4  |
   "D" ADFA DEFA | A2G2 "A" E3F  | "Em" G2E2 "A" B2A2 | "D" D4 D4       :|
|: "Bm" f4 fedf   | "A" e3e edBc  | "Bm" dedB "A" A2FA      | "Bm" B2e2 "Em" e2de |
   "Bm" f3f fedf  | "A" e3e edBc  | "Bm" dedB "A" A2 FA | B2d2 "D" d4 :|


